source/img/icon-vkontakte.svg

<svg width="25" height="25" viewBox="0 0 25 25" fill="none" xmlns="http://www.w3.org/2000/svg">
<path fill-rule="evenodd" clip-rule="evenodd" d="M0 12.5C0 5.59646 5.59646 0 12.5 0C19.4035 0 25 5.59646 25 12.5C25 19.4035 19.4035 25 12.5 25C5.59646 25 0 19.4035 0 12.5ZM13.1539 16.6021C13.1539 16.6021 13.3945 16.5759 13.5178 16.4459C13.6306 16.3269 13.6267 16.1022 13.6267 16.1022C13.6267 16.1022 13.6117 15.053 14.108 14.8981C14.5971 14.7457 15.2251 15.9127 15.8916 16.3615C16.395 16.7007 16.7771 16.6265 16.7771 16.6265L18.5581 16.6021C18.5581 16.6021 19.4894 16.5458 19.0479 15.8269C19.0114 15.768 18.7903 15.295 17.7241 14.3232C16.6069 13.3061 16.7569 13.4706 18.1016 11.7109C18.9207 10.6393 19.2481 9.98505 19.1457 9.70536C19.0485 9.43776 18.4459 9.5088 18.4459 9.5088L16.4413 9.52099C16.4413 9.52099 16.2926 9.50115 16.1824 9.56578C16.0748 9.62917 16.005 9.77703 16.005 9.77703C16.005 9.77703 15.6881 10.606 15.2648 11.3114C14.3721 12.7991 14.0154 12.8778 13.8693 12.7857C13.5295 12.5699 13.6143 11.9202 13.6143 11.4586C13.6143 10.0165 13.8373 9.41536 13.1806 9.25979C12.9628 9.20797 12.8024 9.17401 12.2448 9.16828C11.5294 9.16125 10.9242 9.17083 10.5812 9.33536C10.353 9.44479 10.1769 9.68932 10.2845 9.70344C10.4169 9.72068 10.7169 9.78281 10.876 9.99531C11.0814 10.2699 11.0742 10.8857 11.0742 10.8857C11.0742 10.8857 11.1923 12.5834 10.7984 12.794C10.5284 12.9386 10.158 12.6435 9.36172 11.2935C8.95417 10.6022 8.64635 9.83786 8.64635 9.83786C8.64635 9.83786 8.58698 9.6951 8.48068 9.61828C8.35224 9.52547 8.17286 9.49667 8.17286 9.49667L6.26802 9.5088C6.26802 9.5088 5.98172 9.51651 5.87672 9.63875C5.78349 9.74693 5.86953 9.97161 5.86953 9.97161C5.86953 9.97161 7.36099 13.397 9.05 15.1234C10.5988 16.7058 12.357 16.6021 12.357 16.6021H13.1539Z"/>
</svg>

<svg width="25" height="25" viewBox="0 0 25 25" fill="none" xmlns="http://www.w3.org/2000/svg"><path clip-rule="evenodd" d="M0 12.5C0 5.596 5.596 0 12.5 0S25 5.596 25 12.5 19.404 25 12.5 25 0 19.404 0 12.5zm13.154 4.102s.24-.026.364-.156c.113-.12.109-.344.109-.344s-.015-1.049.481-1.204c.49-.152 1.117 1.015 1.784 1.463.503.34.885.265.885.265l1.781-.024s.931-.056.49-.775c-.037-.059-.258-.532-1.324-1.504-1.117-1.017-.967-.852.378-2.612.819-1.072 1.146-1.726 1.044-2.006-.098-.267-.7-.196-.7-.196l-2.005.012s-.148-.02-.259.045c-.107.063-.177.211-.177.211s-.317.829-.74 1.534c-.893 1.488-1.25 1.567-1.396 1.475-.34-.216-.255-.866-.255-1.327 0-1.442.223-2.044-.433-2.2-.218-.051-.379-.085-.936-.09-.716-.008-1.32.002-1.664.166-.228.11-.404.354-.296.368.132.018.432.08.591.292.205.275.198.89.198.89s.118 1.698-.276 1.909c-.27.145-.64-.15-1.436-1.5-.408-.692-.716-1.456-.716-1.456s-.059-.143-.165-.22c-.129-.093-.308-.121-.308-.121l-1.905.012s-.286.008-.391.13c-.094.108-.007.333-.007.333s1.491 3.425 3.18 5.151c1.549 1.583 3.307 1.48 3.307 1.48h.797z"/></svg>
